X:1
T:Title
%%score { ( 1 3 ) | ( 2 4 ) }
L:1/8
M:4/4
K:D
V:1 treble nm="Grand Piano"
V:3 treble 
V:2 bass 
V:4 bass 
V:1
 z4 z2[Q:1/4=100] [FA]2 | [FA]2 [DF]2 [DF]2 [FA]2 | [EG]2 [CE]2 [CE]3 [DF] | %3
 [EG]>[FA] [GB]>[GB] [Ac]2 [GB]2 |[M:3/4] [FA]6 |[M:1/4] [FA]2 |[M:4/4] [FA]2 F2 F2 A2 | %7
 A2 [CE]2 [CE]2 [CA]2 | ^G>G G>F E2 B2 |[M:3/4] [A,CA]6 |[M:1/4] A>A | %11
[M:4/4] [Fd]3 [Fd] [Fd]>[Fd] [Ac]>[GB] | [FA]2 F4 D2 | F2 B2 A2 D>[DE] |[M:7/8] [DF]2 [CE]2 D3 | %15
[M:1/8] D |[M:4/4] [CE]>[CE] [CE]>[DF] [EG]2 [DF]>[CE] | [DF]2 [FA]4 [FA]>[=FB] | c>c c>c d2 B>c | %19
 B2 [A,CA]4 A2 | d6 z2 | B6 z2 | d2 d2 z2 F2 | ^GABc d2 e2 | z4 c4 |[M:3/4] [Fd]6 |] %26
V:2
 z4 z2 [D,D]2 | [D,D]2 [D,A,]2 [D,A,]2 [D,D]2 | [A,C]2 [A,,A,]2 [A,,A,]3 [A,,A,] | %3
 [A,,A,]>[A,,A,] [A,,A,]>[A,,A,] [A,,A,]2 [A,,A,]2 |[M:3/4] [D,A,]6 |[M:1/4] [D,D]2 | %6
[M:4/4] [D,D]2 [D,A,D]2 [D,A,D]2 [^D,A,=C]2 | [E,A,C]2 [A,,A,]2 [A,,A,]2 [A,,A,]2 | %8
 [E,B,D]>[E,B,D] [E,B,D]>[E,A,D] [E,^G,D]2 [E,G,D]2 |[M:3/4] A,,6 |[M:1/4] A,>A, | %11
[M:4/4] [D,A,]3 [D,A,] [D,A,]>[D,A,] [D,D]>[D,D] | [D,D]2 [D,A,D]4 [D,F,]2 | %13
 [D,A,D]2 [D,G,D]2 [D,F,D]2 [B,,G,]>[B,,^G,] |[M:7/8] [A,,A,]2 [A,,G,]2 [D,F,]3 |[M:1/8] [D,F,] | %16
[M:4/4] [A,,A,]>[A,,A,] [A,,A,]>[A,,A,] [A,,A,]2 [A,,A,]>[A,,A,] | [D,A,]2 [D,D]4 [D,A,]>[D,A,] | %18
 [E,A,E]>[E,A,E] [E,A,E]>[E,A,E] [E,A,F]2 [E,^G,D]>[E,G,E] | [E,^G,D]2 A,,4 A,2 | D6 z2 | B,6 z2 | %22
 [D,D]2 [D,D]2 z2 F,2 | ^G,A,B,C[K:treble] D2 [G,B,^G]2 | [A,F]4[K:bass] [A,,A,]4 | %25
[M:3/4] [D,A,]6 |] %26
V:3
 x8 | x8 | x8 | x8 |[M:3/4] x6 |[M:1/4] x2 |[M:4/4] x8 | x8 | x8 |[M:3/4] x6 |[M:1/4] x2 | %11
[M:4/4] x8 | x8 | x8 |[M:7/8] x7 |[M:1/8] x |[M:4/4] x8 | x8 | x8 | x8 | z2 ^G2 F2 d2 | %21
 z2 ^G2 G2 (3AAA | x8 | x8 | d4 E2 G2 |[M:3/4] x6 |] %26
V:4
 x8 | x8 | x8 | x8 |[M:3/4] x6 |[M:1/4] x2 |[M:4/4] x8 | x8 | x8 |[M:3/4] x6 |[M:1/4] x2 | %11
[M:4/4] x8 | x8 | x8 |[M:7/8] x7 |[M:1/8] x |[M:4/4] x8 | x8 | x8 | x8 | z2 [D,B,]2 [D,A,]2 D2 | %21
 z2 [^G,D]2 [G,D]2 (3A,A,A, | x8 | x4[K:treble] x4 | x4[K:bass] x4 |[M:3/4] x6 |] %26

